X:1
T:Indore, 87.87 D
T:Indore, 87.87 D
T:Andrew Linnaeus Byers, 1907
T:Public Domain Courtesy of the Cyber Hymnal™
C:Andrew Linnaeus Byers, 1907
Z:Public Domain
Z:Courtesy of the Cyber Hymnal™
%%score ( 1 2 ) ( 3 4 )
L:1/8
Q:1/4=135
M:3/4
K:G
V:1 treble 
V:2 treble 
V:3 bass 
V:4 bass 
V:1
 [DG]4 [EG]2 | [DG]4 [DG]2 | [DB]4 [DG]2 | [CE]2 [B,D]4 | [DA]4 [DA]2 | ([CA]2 [B,G]2) [DA]2 | %6
 [DB]4 [Gd]2 | [Fd]6 | [DG]4 [DG]2 | [GB]4 G2 | [Gd]4 [Ge]2 | [Gd]2 [DB]4 | [EG]4 [CE]2 | %13
 D4 ([B,G][CA]) | [DG]4 [DF]2 | [DG]6 | [Fd]4 [Gd]2 | [Fd]4 D2 | [DG]4 [DA]2 | [DB]2 [DG]4 | %20
 [FA]4 [Fd]2 | [GB]4 [DG]2 | [DF]4 [^CE]2 | D6 | [DB]4 [GB]2 | ([GB]2 [DA]2) [DG]2 | [EG]4 [Ec]2 | %27
 [Ge]2 [Gd]4 | [DG]4 [EG]2 | G4 [EA]2 | [DG]6 | [DF]6 | [DG]6 |] %33
V:2
 x6 | x6 | x6 | x6 | x6 | x6 | x6 | x6 | x6 | x4 G2 | x6 | x6 | x6 | D4 x2 | x6 | x6 | x6 | x4 D2 | %18
 x6 | x6 | x6 | x6 | x6 | D6 | x6 | x6 | x6 | x6 | x6 | G4 x2 | x6 | x6 | x6 |] %33
V:3
 [G,B,]4 [G,C]2 | [G,B,]4 [G,B,]2 | G,4 [G,B,]2 | G,2 G,4 | [D,F,]4 [D,F,]2 | (F,2 G,2) [D,F,]2 | %6
 G,4 [G,B,]2 | [D,A,]6 | [G,B,]4 [G,B,]2 | [G,D]4 [G,B,]2 | [G,B,]4 [G,C]2 | [G,B,]2 G,4 | %12
 [C,C]4 [C,G,]2 | [B,,G,]4 [E,G,]2 | [D,B,]4 [D,A,]2 | [G,,B,]6 | [D,A,]4 [D,B,]2 | [D,A,]4 F,2 | %18
 [B,,G,]4 [D,F,]2 | G,2 [G,B,]4 | [D,D]4 [D,D]2 | [G,D]4 [G,B,]2 | A,4 [A,,G,]2 | [D,F,]6 | %24
 G,4 [G,D]2 | (D2 C2) [G,B,]2 | [C,C]4 [C,C]2 | [G,C]2 [G,B,]4 | [G,B,]4 [E,B,]2 | [B,,D]4 [C,C]2 | %30
 [D,B,]6 | (A,4 C2) | [G,,B,]6 |] %33
V:4
 x6 | x6 | G,4 x2 | G,2 G,4 | x6 | D,4 x2 | G,4 x2 | x6 | x6 | x6 | x6 | x2 G,4 | x6 | x6 | x6 | %15
 x6 | x6 | x4 (D,C,) | x6 | G,2 x4 | x6 | x6 | A,4 x2 | x6 | G,4 x2 | G,4 x2 | x6 | x6 | x6 | x6 | %30
 x6 | D,6 | x6 |] %33

